X: 40799
T: Trá Phearla
R: jig
M: 6/8
K: Gmajor
|:G,B,D [G,D]B,D|GBd AFD|~B2d ~c2d|ABA GFE|
DED CB,A,|G,B,D GBd|cdc AFD|1 GAG G3:|2 GAG GBd||
|:gdB gdg|gab gdB|cAF DFA|edc Bcd|
gdg gdg|gab gdB|cAF DFA|1 GAG GBd:|2 GAG G3||

